packages/devextreme-scss/images/icons/fluent/arrowsortdown.svg

<svg width="20" height="20" viewBox="0 0 20 20" fill="none" xmlns="http://www.w3.org/2000/svg">
<path d="M10.0025 15.2902L12.6468 12.6458C12.8421 12.4506 13.1587 12.4506 13.3539 12.6458C13.5492 12.8411 13.5492 13.1577 13.3539 13.3529L9.8856 16.8213C9.79388 16.9305 9.65628 17 9.50245 17H9.50079C9.4221 17 9.34341 16.9816 9.27177 16.9447C9.22664 16.9215 9.1843 16.891 9.1465 16.8533L9.13652 16.843L5.64645 13.3529C5.45118 13.1577 5.45118 12.8411 5.64645 12.6458C5.84171 12.4505 6.15829 12.4505 6.35355 12.6458L9.00245 15.2947V3.5C9.00245 3.22386 9.22631 3 9.50245 3C9.77859 3 10.0025 3.22386 10.0025 3.5V15.2902Z" fill="black"/>
</svg>

<!-- Generated by IcoMoon.io -->
<svg version="1.1" xmlns="http://www.w3.org/2000/svg" width="20" height="20" viewBox="0 0 20 20">
<path d="M10.003 15.29l2.644-2.644c0.195-0.195 0.512-0.195 0.707 0s0.195 0.512 0 0.707l-3.468 3.468c-0.092 0.109-0.229 0.179-0.383 0.179h-0.002c-0.079 0-0.157-0.018-0.229-0.055-0.045-0.023-0.087-0.054-0.125-0.091l-0.010-0.010-3.49-3.49c-0.195-0.195-0.195-0.512 0-0.707s0.512-0.195 0.707 0l2.649 2.649v-11.795c0-0.276 0.224-0.5 0.5-0.5s0.5 0.224 0.5 0.5v11.79z"></path>
</svg>
